X: 27601
T: Monymusk
R: reel
M: 4/4
K: Gmajor
|:(3gfe|d<GB>G d>Gc>e|d<GB>G A>Bc>e|d>GB>G d<G (3Bcd|e>cA<d B>G:|
|:G>f|g>dB>g d>g (3Bcd|g>dB<G e>Ac>f|1 g>dB>g d>g (3BAG|
e>cA<d B>G:|2 g>ef>d e>cd>B|c>Ad<c B>G||

